packages/core/src/svgs/tokens/branded/XMR.svg

<svg width="24" height="24" viewBox="0 0 24 24" fill="none" xmlns="http://www.w3.org/2000/svg">
<path d="M11.9999 2C17.5362 2 22 6.4681 22 12.0093C21.9984 13.0683 21.8269 14.1204 21.4918 15.125H18.2499V6.76436L11.9906 13.2856L5.74999 6.77311V15.125H2.50813C2.17214 14.1205 2.00055 13.0685 2 12.0093C2 6.47748 6.4731 2 11.9999 2ZM12.0275 16.2462L16.3749 11.8982V17H20.5399C18.6912 20.0512 15.615 22.0017 11.9999 22C8.3956 22 5.22499 19.8768 3.45999 17H7.62498V11.8982L12.0275 16.2462Z" fill="#FF6600"/>
</svg>

<svg xmlns="http://www.w3.org/2000/svg" width="24" height="24" fill="none" viewBox="0 0 24 24">
    <path fill="#F60" d="M12 2c5.536 0 10 4.468 10 10.01a9.9 9.9 0 0 1-.508 3.115H18.25v-8.36l-6.26 6.52-6.24-6.512v8.352H2.508A9.8 9.8 0 0 1 2 12.009C2 6.477 6.473 2 12 2m.027 14.246 4.348-4.348V17h4.165c-1.849 3.051-4.925 5.002-8.54 5-3.604 0-6.775-2.123-8.54-5h4.165v-5.102z"/>
</svg>
